X:105
T:Pilgrim THO3.105, The
O:England;London
M:6/8
L:1/8
Z:vmp. Peter Dunk 2011.from a transcription by Fynn Titford-Mock 2006-9
B:Thompson's Compleat Collection of 200 Favourite Country Dances Vol. III.1765-72
Q:3/8=100
K:G
G>AB B>AG|ABc cBA|Bcd dcB|ABG FED|GAB BAG|B^cd efg|fed ed^c|d3D3:|
|:de=f fed|cde cBA|Bcd efg|BAG AFD| GAB cde|def gdB|ecA dBG|DEF G3:|

